nodes/-628971647.svg

<?xml version="1.0" standalone="no"?><!DOCTYPE svg PUBLIC "-//W3C//DTD SVG 1.1//EN" "http://www.w3.org/Graphics/SVG/1.1/DTD/svg11.dtd"><svg width="100%" height="100%" viewBox="0 0 1280 1150" version="1.1" xmlns="http://www.w3.org/2000/svg" xmlns:xlink="http://www.w3.org/1999/xlink" xml:space="preserve" style="fill-rule:evenodd;clip-rule:evenodd;stroke-linecap:round;stroke-linejoin:round;stroke-miterlimit:1.41421;"><g id="rumpf 3600 front"><path d="M147.311,980.975l0.155195,25.3016c351.799,13.5999 702.321,12.0893 1052.96,0l0.13146,-25.3016c-350.653,-23.0058 -701.532,-22.8605 -1053.25,0Z" style="fill:#0d0d0d;stroke-width:1px;stroke:#000;"/><path d="M1200.43,1006.04c-352.018,12.5432 -703.098,13.6545 -1052.96,0l0,21.3661c346.516,43.9694 697.727,41.784 1052.96,0l0,-21.3661Z" style="fill:#1a1a1a;stroke-width:1px;stroke:#000;"/><path d="M248.104,1038.87l19.8668,27.9507c271.062,8.68199 542.122,8.24793 813.182,0l11.8526,-27.9507c-281.511,27.0043 -563.169,28.2079 -844.902,0Z" style="fill:#0d0d0d;stroke-width:1px;stroke:#000;"/><path d="M147.308,980.987l20.7743,-77.3104c339.639,-28.5692 675.404,-27.4076 1007.75,0l24.7286,77.3104c-351.093,-21.7306 -1053.25,0 -1053.25,0Z" style="fill:#1a1a1a;stroke-width:1px;stroke:#000;"/><path d="M171.425,890.166c333.01,-23.0781 665.973,-28.062 998.848,0l-18.0764,-71.2092c-326.015,-29.3439 -645.719,-24.5419 -961.774,0l-18.9973,71.2092Z" style="fill:#1a1a1a;stroke-width:1px;stroke:#000;"/><path d="M191.723,808.384c321.171,-24.5663 640.077,-26.6286 956.096,0l-22.55,-72.7941c-302.251,-26.6384 -607.279,-24.6573 -914.505,0l-19.0407,72.7941Z" style="fill:#1a1a1a;stroke-width:1px;stroke:#000;"/><path d="M1170.27,890.051c-335.337,-26.2613 -668.026,-24.7268 -998.611,0l0,13.2924c334.16,-26.43 667.35,-28.4835 999.309,0l-0.697729,-13.2924Z" style="fill:#0d0d0d;stroke-width:1px;stroke:#000;"/><path d="M191.815,808.449l0,10.4246c319.457,-26.5065 638.144,-27.0937 956.007,-0.345419l0,-10.0792c-318.338,-26.1896 -637.019,-25.1684 -956.007,0Z" style="fill:#0d0d0d;stroke-width:1px;stroke:#000;"/></g><g id="leds anzeige"><path d="M437.904,985.138c-8.71247,0.0394648 -9.55269,19.1928 3.24719,19.5282c13.7991,0.36152 11.854,-19.3325 3.21465,-19.5282" style="fill:none;stroke-width:3px;stroke:#29ac37;"/><path d="M441.05,996.543l0,-14.6373" style="fill:none;stroke-width:3px;stroke:#29ac37;"/><path d="M489.591,981.905l1.91134,5.77658l3.68326,-1.78506l-0.590638,3.99152l6.18524,-1.72405e-07l-5.00396,3.57012l2.86702,2.88829l-4.04829,0.681832l1.91134,5.77658l-5.00396,-3.57012l-1.91134,3.57012l-1.91134,-3.57012l-5.00396,3.57012l1.91134,-5.77658l-4.04829,-0.681832l2.86702,-2.88829l-5.00396,-3.57012l6.18524,1.72405e-07l-0.590638,-3.99152l3.68326,1.78506l1.91134,-5.77658Z" style="fill:#29ac37;stroke-width:1px;stroke:#29ac37;"/><g><path d="M532.5,1001.56c3.03703,-3.0595 6.08335,-2.45622 9.13438,0" style="fill:none;stroke-width:3px;stroke:#29ac37;"/><path d="M529.218,994.65c5.17675,-3.94158 10.3107,-3.8203 15.4058,0" style="fill:none;stroke-width:3px;stroke:#29ac37;"/><path d="M526.539,988.847c6.78055,-4.89746 13.6934,-5.46411 20.7904,0" style="fill:none;stroke-width:3px;stroke:#29ac37;"/></g><g><path d="M580.511,1001.98c3.03703,-3.0595 6.08335,-2.45622 9.13438,0" style="fill:none;stroke-width:3px;stroke:#29ac37;"/><path d="M577.229,995.066c5.17675,-3.94158 10.3107,-3.8203 15.4058,0" style="fill:none;stroke-width:3px;stroke:#29ac37;"/><path d="M574.551,989.263c6.78055,-4.89746 13.6934,-5.46411 20.7904,0" style="fill:none;stroke-width:3px;stroke:#29ac37;"/></g><g><path d="M626.349,996.053l-3.27697,0l0,-10.3038l18.1434,0l0,10.3038l-3.03325,0" style="fill:none;stroke-width:3px;stroke:#29ac37;"/><path d="M626.295,1003.22l11.0425,0l-4.98572,0l0,-7.79534" style="fill:none;stroke-width:3px;stroke:#29ac37;"/></g><g><path d="M675.528,996.575l-3.27697,0l0,-10.3038l18.1434,0l0,10.3038l-3.03325,0" style="fill:none;stroke-width:3px;stroke:#29ac37;"/><path d="M675.473,1003.74l11.0425,0l-4.98572,0l0,-7.79534" style="fill:none;stroke-width:3px;stroke:#29ac37;"/></g><g><path d="M723.239,996.568l-3.27697,0l0,-10.3038l18.1434,0l0,10.3038l-3.03325,0" style="fill:none;stroke-width:3px;stroke:#29ac37;"/><path d="M723.184,1003.73l11.0425,0l-4.98572,0l0,-7.79534" style="fill:none;stroke-width:3px;stroke:#29ac37;"/></g><g><path d="M772.437,996.452l-3.27697,0l0,-10.3038l18.1434,0l0,10.3038l-3.03325,0" style="fill:none;stroke-width:3px;stroke:#29ac37;"/><path d="M772.383,1003.61l11.0425,0l-4.98572,0l0,-7.79534" style="fill:none;stroke-width:3px;stroke:#29ac37;"/></g><g><path d="M813.094,996.529c-1.72261,2.53152 -1.72261,4.81979 0,6.8648c12.3985,-1.40886 20.8155,-6.31468 25.8245,-14.2136c-0.916106,-1.90979 -2.42076,-2.72553 -4.34806,-2.75561" style="fill:none;stroke-width:3px;stroke:#29ac37;"/><path d="M817.984,994.321c-0.444786,-8.39399 2.21854,-12.4532 12.9805,-5.21767" style="fill:none;stroke-width:3px;stroke:#29ac37;"/></g><g><path d="M862.264,985.285c-3.15018,5.48813 -1.57481,10.7291 1.85415,15.8732l2.50636,-4.94141" style="fill:none;stroke-width:3px;stroke:#29ac37;"/><path d="M874.847,1000.02c3.14452,-7.28393 2.08729,-12.8549 -2.97925,-16.7912l-2.22319,6.52485" style="fill:none;stroke-width:3px;stroke:#29ac37;"/></g><g><path d="M901.628,988.999c-0.719599,13.9512 20.9593,8.80366 17.7349,-1.96216" style="fill:none;stroke-width:3px;stroke:#29ac37;"/><path d="M910.391,1004.16l0,-23.4982l3.57745,6.14059l-8.24815,0l4.6707,-6.14059" style="fill:none;stroke-width:3px;stroke:#29ac37;"/></g></g><path d="M213.007,113.052c21.3585,124.001 42.6745,247.865 62.8961,373.673c7.45449,46.3779 11.6237,93.2518 15.758,140.147l15.5478,101.706l50.1224,-3.07499l-106.865,-619.843l-37.4593,7.39205Z" style="fill:#0d0d0d;stroke-width:1px;stroke:#000;"/><path d="M231.275,89.1338c22.9142,-2.59923 25.4569,21.3257 6.42754,40.34l71.2152,430.925l16.8785,52.6606l26.3304,112.796l-36.3697,2.22593l-16.3632,-161.385l-72.3811,-431.446c-17.3443,-19.427 -24.6603,-43.4323 4.26241,-46.1168" style="fill:#333;stroke-width:1px;stroke:#000;"/><path d="M1030.06,728.081l16.2534,-116.128c4.55764,-53.9511 7.98748,-108.322 17.7408,-161.86c20.6428,-113.313 34.7202,-221.589 51.0639,-331.113l-36.4548,-9.05432c-23.2567,164.184 -47.576,328.383 -80.2954,492.704l-19.9309,122.299l51.6232,3.15191Z" style="fill:#0d0d0d;stroke-width:1px;stroke:#000;"/><path d="M1091.78,135.22c-7.0499,-7.47155 -11.6593,-15.8669 -13.2167,-25.4174c3.75231,-24.0514 34.6439,-22.1532 36.9632,0c1.53108,10.0908 -2.85898,18.404 -11.5785,25.4174l-68.4174,442.038l0,27.6003l-6.54783,123.217l-49.2723,-3.07372l45.7437,-144.22l66.3258,-445.562Z" style="fill:#333;stroke-width:1px;stroke:#000;"/></svg>

<?xml version="1.0" standalone="no"?>
<!DOCTYPE svg PUBLIC "-//W3C//DTD SVG 1.1//EN" "http://www.w3.org/Graphics/SVG/1.1/DTD/svg11.dtd">
<svg width="100%" height="100%" viewBox="0 0 1280 1150" version="1.1" xmlns="http://www.w3.org/2000/svg" xmlns:xlink="http://www.w3.org/1999/xlink" xml:space="preserve" style="fill-rule:evenodd;clip-rule:evenodd;stroke-linecap:round;stroke-linejoin:round;stroke-miterlimit:1.41421;">
    <g transform="matrix(0.99971,0.0240944,-0.0240944,0.99971,-18.8393,-7.28385)">
        <g transform="matrix(0.985,-0.172555,0.172555,0.985,-354.931,177.276)">
            <path d="M1030.06,728.081L1046.31,611.954C1050.87,558.003 1054.3,503.631 1064.05,450.093C1084.69,336.781 1098.77,228.505 1115.12,118.98L1078.66,109.926C1055.4,274.11 1031.08,438.309 998.365,602.63L978.434,724.929L1030.06,728.081Z" style="fill:rgb(13,13,13);stroke-width:1px;stroke:black;"/>
        </g>
        <g transform="matrix(0.985,-0.172555,0.172555,0.985,-354.931,177.276)">
            <path d="M1091.78,135.22C1084.73,127.749 1080.12,119.354 1078.57,109.803C1082.32,85.752 1113.21,87.65 1115.53,109.803C1117.06,119.894 1112.67,128.207 1103.95,135.22L1035.54,577.258L1035.54,604.859L1028.99,728.076L979.715,725.002L1025.46,580.782L1091.78,135.22Z" style="fill:rgb(51,51,51);stroke-width:1px;stroke:black;"/>
        </g>
    </g>
    <g id="rumpf 3600 front">
        <path d="M147.311,980.975L147.466,1006.28C499.265,1019.88 849.787,1018.37 1200.43,1006.28L1200.56,980.975C849.909,957.97 499.03,958.115 147.311,980.975Z" style="fill:rgb(13,13,13);stroke-width:1px;stroke:black;"/>
        <path d="M1200.43,1006.04C848.413,1018.58 497.333,1019.69 147.467,1006.04L147.467,1027.4C493.983,1071.37 845.193,1069.19 1200.43,1027.4L1200.43,1006.04Z" style="fill:rgb(26,26,26);stroke-width:1px;stroke:black;"/>
        <path d="M248.104,1038.87L267.971,1066.82C539.033,1075.51 810.093,1075.07 1081.15,1066.82L1093.01,1038.87C811.494,1065.88 529.836,1067.08 248.104,1038.87Z" style="fill:rgb(13,13,13);stroke-width:1px;stroke:black;"/>
        <path d="M147.308,980.987L168.082,903.677C507.721,875.108 843.486,876.269 1175.83,903.677L1200.56,980.987C849.468,959.257 147.308,980.987 147.308,980.987Z" style="fill:rgb(26,26,26);stroke-width:1px;stroke:black;"/>
        <path d="M171.425,890.166C504.435,867.087 837.397,862.104 1170.27,890.166L1152.2,818.956C826.181,789.612 506.477,794.414 190.422,818.956L171.425,890.166Z" style="fill:rgb(26,26,26);stroke-width:1px;stroke:black;"/>
        <path d="M191.723,808.384C512.893,783.818 831.8,781.756 1147.82,808.384L1125.27,735.59C823.018,708.952 517.99,710.933 210.763,735.59L191.723,808.384Z" style="fill:rgb(26,26,26);stroke-width:1px;stroke:black;"/>
        <path d="M1170.27,890.051C834.928,863.79 502.239,865.324 171.654,890.051L171.654,903.344C505.814,876.914 839.004,874.86 1170.96,903.344L1170.27,890.051Z" style="fill:rgb(13,13,13);stroke-width:1px;stroke:black;"/>
        <path d="M191.815,808.449L191.815,818.874C511.272,792.367 829.959,791.78 1147.82,818.528L1147.82,808.449C829.483,782.259 510.802,783.28 191.815,808.449Z" style="fill:rgb(13,13,13);stroke-width:1px;stroke:black;"/>
    </g>
    <g id="leds anzeige">
        <path d="M437.904,985.138C429.191,985.177 428.351,1004.33 441.151,1004.67C454.95,1005.03 453.005,985.333 444.365,985.138" style="fill:none;stroke-width:3px;stroke:rgb(41,172,55);"/>
        <path d="M441.05,996.543L441.05,981.906" style="fill:none;stroke-width:3px;stroke:rgb(41,172,55);"/>
        <path d="M489.591,981.905L491.502,987.682L495.186,985.896L494.595,989.888L500.78,989.888L495.776,993.458L498.643,996.346L494.595,997.028L496.506,1002.81L491.502,999.235L489.591,1002.81L487.68,999.235L482.676,1002.81L484.587,997.028L480.539,996.346L483.406,993.458L478.402,989.888L484.587,989.888L483.996,985.896L487.68,987.682L489.591,981.905Z" style="fill:rgb(41,172,55);stroke-width:1px;stroke:rgb(41,172,55);"/>
        <g>
            <path d="M532.5,1001.56C535.537,998.5 538.583,999.103 541.634,1001.56" style="fill:none;stroke-width:3px;stroke:rgb(41,172,55);"/>
            <path d="M529.218,994.65C534.394,990.708 539.528,990.83 544.623,994.65" style="fill:none;stroke-width:3px;stroke:rgb(41,172,55);"/>
            <path d="M526.539,988.847C533.32,983.95 540.233,983.383 547.33,988.847" style="fill:none;stroke-width:3px;stroke:rgb(41,172,55);"/>
        </g>
        <g transform="matrix(1,0,0,1,48.0114,0.416112)">
            <path d="M532.5,1001.56C535.537,998.5 538.583,999.103 541.634,1001.56" style="fill:none;stroke-width:3px;stroke:rgb(41,172,55);"/>
            <path d="M529.218,994.65C534.394,990.708 539.528,990.83 544.623,994.65" style="fill:none;stroke-width:3px;stroke:rgb(41,172,55);"/>
            <path d="M526.539,988.847C533.32,983.95 540.233,983.383 547.33,988.847" style="fill:none;stroke-width:3px;stroke:rgb(41,172,55);"/>
        </g>
        <g>
            <path d="M626.349,996.053L623.073,996.053L623.073,985.75L641.216,985.75L641.216,996.053L638.183,996.053" style="fill:none;stroke-width:3px;stroke:rgb(41,172,55);"/>
            <path d="M626.295,1003.22L637.337,1003.22L632.352,1003.22L632.352,995.421" style="fill:none;stroke-width:3px;stroke:rgb(41,172,55);"/>
        </g>
        <g transform="matrix(1,0,0,1,49.178,0.521351)">
            <path d="M626.349,996.053L623.073,996.053L623.073,985.75L641.216,985.75L641.216,996.053L638.183,996.053" style="fill:none;stroke-width:3px;stroke:rgb(41,172,55);"/>
            <path d="M626.295,1003.22L637.337,1003.22L632.352,1003.22L632.352,995.421" style="fill:none;stroke-width:3px;stroke:rgb(41,172,55);"/>
        </g>
        <g transform="matrix(1,0,0,1,96.8896,0.514428)">
            <path d="M626.349,996.053L623.073,996.053L623.073,985.75L641.216,985.75L641.216,996.053L638.183,996.053" style="fill:none;stroke-width:3px;stroke:rgb(41,172,55);"/>
            <path d="M626.295,1003.22L637.337,1003.22L632.352,1003.22L632.352,995.421" style="fill:none;stroke-width:3px;stroke:rgb(41,172,55);"/>
        </g>
        <g transform="matrix(1,0,0,1,146.088,0.398803)">
            <path d="M626.349,996.053L623.073,996.053L623.073,985.75L641.216,985.75L641.216,996.053L638.183,996.053" style="fill:none;stroke-width:3px;stroke:rgb(41,172,55);"/>
            <path d="M626.295,1003.22L637.337,1003.22L632.352,1003.22L632.352,995.421" style="fill:none;stroke-width:3px;stroke:rgb(41,172,55);"/>
        </g>
        <g>
            <path d="M813.094,996.529C811.372,999.061 811.372,1001.35 813.094,1003.39C825.493,1001.99 833.91,997.079 838.919,989.18C838.003,987.271 836.498,986.455 834.571,986.425" style="fill:none;stroke-width:3px;stroke:rgb(41,172,55);"/>
            <path d="M817.984,994.321C817.54,985.927 820.203,981.868 830.965,989.103" style="fill:none;stroke-width:3px;stroke:rgb(41,172,55);"/>
        </g>
        <g>
            <path d="M862.264,985.285C859.114,990.773 860.689,996.014 864.118,1001.16L866.625,996.217" style="fill:none;stroke-width:3px;stroke:rgb(41,172,55);"/>
            <path d="M874.847,1000.02C877.992,992.74 876.934,987.169 871.868,983.232L869.645,989.757" style="fill:none;stroke-width:3px;stroke:rgb(41,172,55);"/>
        </g>
        <g>
            <path d="M901.628,988.999C900.909,1002.95 922.588,997.803 919.363,987.037" style="fill:none;stroke-width:3px;stroke:rgb(41,172,55);"/>
            <path d="M910.391,1004.16L910.391,980.665L913.968,986.806L905.72,986.806L910.391,980.665" style="fill:none;stroke-width:3px;stroke:rgb(41,172,55);"/>
        </g>
    </g>
    <path d="M213.007,113.052C234.365,237.053 255.681,360.917 275.903,486.725C283.358,533.103 287.527,579.977 291.661,626.872L307.209,728.578L357.331,725.503L250.466,105.66L213.007,113.052Z" style="fill:rgb(13,13,13);stroke-width:1px;stroke:black;"/>
    <path d="M231.275,89.134C254.189,86.535 256.732,110.459 237.703,129.474L308.918,560.399L325.796,613.06L352.127,725.855L315.757,728.081L299.394,566.697L227.013,135.251C209.668,115.824 202.352,91.818 231.275,89.134" style="fill:rgb(51,51,51);stroke-width:1px;stroke:black;"/>
    <path d="M1030.06,728.081L1046.31,611.954C1050.87,558.003 1054.3,503.631 1064.05,450.093C1084.69,336.781 1098.77,228.505 1115.12,118.98L1078.66,109.926C1055.4,274.11 1031.08,438.309 998.365,602.63L978.434,724.929L1030.06,728.081Z" style="fill:rgb(13,13,13);stroke-width:1px;stroke:black;"/>
    <path d="M1091.78,135.22C1084.73,127.749 1080.12,119.354 1078.57,109.803C1082.32,85.752 1113.21,87.65 1115.53,109.803C1117.06,119.894 1112.67,128.207 1103.95,135.22L1035.54,577.258L1035.54,604.859L1028.99,728.076L979.715,725.002L1025.46,580.782L1091.78,135.22Z" style="fill:rgb(51,51,51);stroke-width:1px;stroke:black;"/>
    <path d="M1091.78,135.22C1084.73,127.749 1080.12,119.354 1078.57,109.803C1082.32,85.752 1113.21,87.65 1115.53,109.803C1117.06,119.894 1112.67,128.207 1103.95,135.22L1035.54,577.258L1035.54,604.859L1028.99,728.076L979.715,725.002L1025.46,580.782L1091.78,135.22Z" style="fill:rgb(51,51,51);stroke-width:1px;stroke:black;"/>
</svg>
